SVG_Azure_All/Storage Explorer.svg

<?xml version="1.0" encoding="UTF-8" standalone="no"?>
<!-- Generated by Microsoft Visio, SVG Export Storage Explorer.svg Page-1 -->

<svg
   xmlns:dc="http://purl.org/dc/elements/1.1/"
   xmlns:cc="http://creativecommons.org/ns#"
   xmlns:rdf="http://www.w3.org/1999/02/22-rdf-syntax-ns#"
   xmlns:svg="http://www.w3.org/2000/svg"
   xmlns="http://www.w3.org/2000/svg"
   xmlns:sodipodi="http://sodipodi.sourceforge.net/DTD/sodipodi-0.dtd"
   xmlns:inkscape="http://www.inkscape.org/namespaces/inkscape"
   width="0.78745151in"
   height="0.78753525in"
   viewBox="0 0 56.696653 56.702303"
   xml:space="preserve"
   class="st4"
   version="1.1"
   id="svg45"
   sodipodi:docname="Storage Explorer.svg"
   style="font-size:12px;overflow:visible;color-interpolation-filters:sRGB;fill:none;fill-rule:evenodd;stroke-linecap:square;stroke-miterlimit:3"
   inkscape:version="0.92.5 (2060ec1f9f, 2020-04-08)"><metadata
   id="metadata49"><rdf:RDF><cc:Work
       rdf:about=""><dc:format>image/svg+xml</dc:format><dc:type
         rdf:resource="http://purl.org/dc/dcmitype/StillImage" /></cc:Work></rdf:RDF></metadata><sodipodi:namedview
   pagecolor="#ffffff"
   bordercolor="#666666"
   borderopacity="1"
   objecttolerance="10"
   gridtolerance="10"
   guidetolerance="10"
   inkscape:pageopacity="0"
   inkscape:pageshadow="2"
   inkscape:window-width="640"
   inkscape:window-height="480"
   id="namedview47"
   showgrid="false"
   inkscape:zoom="1.41923"
   inkscape:cx="37.799845"
   inkscape:cy="37.795633"
   inkscape:window-x="0"
   inkscape:window-y="0"
   inkscape:window-maximized="0"
   inkscape:current-layer="svg45" />
	<style
   type="text/css"
   id="style2">
	<![CDATA[
		.st1 {fill:#005ba1;stroke:none;stroke-linecap:butt;stroke-width:34}
		.st2 {fill:#32bedd;stroke:none;stroke-linecap:butt;stroke-width:34}
		.st3 {fill:url(#grad0-14);stroke:none;stroke-linecap:butt;stroke-width:34}
		.st4 {fill:none;fill-rule:evenodd;font-size:12px;overflow:visible;stroke-linecap:square;stroke-miterlimit:3}
	]]>
	</style>

	<defs
   id="Patterns_And_Gradients">
		<linearGradient
   id="grad0-14"
   x1="-0.0061805304"
   y1="81.628154"
   x2="52.65164"
   y2="81.628154"
   gradientTransform="scale(1.0766996,0.92876416)"
   gradientUnits="userSpaceOnUse">
			<stop
   offset="0"
   stop-color="#773adc"
   stop-opacity="1"
   id="stop4" />
			<stop
   offset="1"
   stop-color="#b77af4"
   stop-opacity="1"
   id="stop6" />
		</linearGradient>
	</defs>
	<g
   id="g43"
   transform="translate(-34.000045,-34.002033)">
		<title
   id="title10">Page-1</title>
		<g
   id="group886-1"
   transform="translate(34.0067,-34.0157)">
			<title
   id="title12">Storage Explorer</title>
			<g
   id="group887-2">
				<title
   id="title14">Icon-91Artboard 1</title>
				<g
   id="shape888-3"
   transform="translate(28.1704,-13.8189)">
					<title
   id="title16">Sheet.888</title>
					<rect
   x="0"
   y="114.44"
   width="27.8183"
   height="10.2756"
   class="st1"
   id="rect18"
   style="fill:#005ba1;stroke:none;stroke-width:34;stroke-linecap:butt" />
				</g>
				<g
   id="shape889-5"
   transform="translate(0,-46.063)">
					<title
   id="title21">Sheet.889</title>
					<path
   d="m 1.06,114.09 h 11.62 a 1.12682,1.13386 0 0 1 1.05,1.06 v 8.5 a 1.12682,1.13386 0 0 1 -1.05,1.07 H 1.06 C 0.35,124.36 0,124.01 0,123.65 v -8.5 a 0.950751,0.956693 0 0 1 1.05639,-1.06299 z"
   class="st2"
   id="path23"
   inkscape:connector-curvature="0"
   style="fill:#32bedd;stroke:none;stroke-width:34;stroke-linecap:butt" />
				</g>
				<g
   id="shape890-7"
   transform="translate(1.76065,-1.41732)">
					<title
   id="title26">Sheet.890</title>
					<rect
   x="0"
   y="113.731"
   width="52.4674"
   height="10.9843"
   class="st1"
   id="rect28"
   style="fill:#005ba1;stroke:none;stroke-width:34;stroke-linecap:butt" />
				</g>
				<g
   id="shape891-9"
   transform="translate(0,-25.5118)">
					<title
   id="title31">Sheet.891</title>
					<path
   d="m 14.44,114.09 h 11.62 a 1.12682,1.13386 -180 0 0 1.05,-1.07 v -8.15 a 1.12682,1.13386 -180 0 0 -1.05,-1.06 H 14.44 a 0.950751,0.956693 -180 0 0 -1.05639,1.06299 L 13.38,113.38 a 1.12682,1.13386 0 0 1 -1.06,1.06 H 1.06 C 0.35,114.09 0,114.79 0,115.15 v 8.5 a 1.12682,1.13386 -180 0 0 1.06,1.07 h 11.62 a 1.12682,1.13386 -180 0 0 1.05,-1.07 v -8.5 c -0.35,-0.36 0,-1.06 0.71,-1.06 z"
   class="st2"
   id="path33"
   inkscape:connector-curvature="0"
   style="fill:#32bedd;stroke:none;stroke-width:34;stroke-linecap:butt" />
				</g>
				<g
   id="shape892-11">
					<title
   id="title36">Sheet.892</title>
					<path
   d="M 56.34,76.88 A 1.12682,1.13386 -180 0 0 55.28,75.82 H 41.2 a 0.950751,0.956693 -180 0 0 -1.05639,1.06299 L 40.14,87.86 H 27.11 V 99.2 H 13.38 v 11.7 H 1.06 A 1.12682,1.13386 -180 0 0 0,111.96 v 11.69 a 0.950751,0.956693 -180 0 0 1.05639,1.06299 L 55.64,124.72 a 1.12682,1.13386 -180 0 0 1.05,-1.07 V 76.88 Z M 13.38,122.94 H 1.76 v -9.92 h 11.27 z m 13.73,0 H 15.14 v -9.92 h 11.97 z m 0,-12.04 H 15.14 v -9.92 H 27.11 Z M 28.87,89.64 H 40.49 V 99.2 H 28.87 Z m 0,11.69 h 11.62 v 9.57 H 28.87 Z m 0,21.61 v -9.92 h 11.62 v 9.92 z m 13.39,-21.61 h 12.32 v 9.57 H 42.26 Z M 54.58,99.2 H 42.26 v -9.56 h 12.32 z m -12.32,23.74 v -9.92 h 12.32 v 9.92 z"
   class="st3"
   id="path38"
   inkscape:connector-curvature="0"
   style="fill:url(#grad0-14);stroke:none;stroke-width:34;stroke-linecap:butt" />
				</g>
			</g>
		</g>
	</g>
</svg>

<?xml version="1.0" encoding="UTF-8" standalone="no"?>
<!DOCTYPE svg PUBLIC "-//W3C//DTD SVG 1.1//EN" "http://www.w3.org/Graphics/SVG/1.1/DTD/svg11.dtd">
<!-- Generated by Microsoft Visio, SVG Export Storage Explorer.svg Page-1 -->
<svg xmlns="http://www.w3.org/2000/svg" xmlns:xlink="http://www.w3.org/1999/xlink" xmlns:ev="http://www.w3.org/2001/xml-events"
		width="1.73194in" height="1.73216in" viewBox="0 0 124.7 124.715" xml:space="preserve" color-interpolation-filters="sRGB"
		class="st4">
	<style type="text/css">
	<![CDATA[
		.st1 {fill:#005ba1;stroke:none;stroke-linecap:butt;stroke-width:34}
		.st2 {fill:#32bedd;stroke:none;stroke-linecap:butt;stroke-width:34}
		.st3 {fill:url(#grad0-14);stroke:none;stroke-linecap:butt;stroke-width:34}
		.st4 {fill:none;fill-rule:evenodd;font-size:12px;overflow:visible;stroke-linecap:square;stroke-miterlimit:3}
	]]>
	</style>

	<defs id="Patterns_And_Gradients">
		<linearGradient id="grad0-14" x1="0" y1="0" x2="1" y2="0" gradientTransform="rotate(-90 0.5 0.5)">
			<stop offset="0" stop-color="#773adc" stop-opacity="1"/>
			<stop offset="1" stop-color="#b77af4" stop-opacity="1"/>
		</linearGradient>
	</defs>
	<g>
		<title>Page-1</title>
		<g id="group871-1" transform="translate(34.0067,-34.0157)">
			<title>Storage Explorer</title>
			<g id="group872-2">
				<title>Icon-91Artboard 1</title>
				<g id="shape873-3" transform="translate(28.1704,-13.8189)">
					<title>Sheet.873</title>
					<rect x="0" y="114.44" width="27.8183" height="10.2756" class="st1"/>
				</g>
				<g id="shape874-5" transform="translate(0,-46.063)">
					<title>Sheet.874</title>
					<path d="M1.06 114.09 L12.68 114.09 A1.12682 1.13386 0 0 1 13.73 115.15 L13.73 123.65 A1.12682 1.13386 0 0 1
								 12.68 124.72 L1.06 124.72 C0.35 124.36 0 124.01 0 123.65 L0 115.15 a0.950751 0.956693 0 0 1 1.05639
								 -1.06299 Z" class="st2"/>
				</g>
				<g id="shape875-7" transform="translate(1.76065,-1.41732)">
					<title>Sheet.875</title>
					<rect x="0" y="113.731" width="52.4674" height="10.9843" class="st1"/>
				</g>
				<g id="shape876-9" transform="translate(0,-25.5118)">
					<title>Sheet.876</title>
					<path d="M14.44 114.09 L26.06 114.09 A1.12682 1.13386 -180 0 0 27.11 113.02 L27.11 104.87 A1.12682 1.13386 -180
								 0 0 26.06 103.81 L14.44 103.81 a0.950751 0.956693 -180 0 0 -1.05639 1.06299 L13.38 113.38 A1.12682
								 1.13386 0 0 1 12.32 114.44 L1.06 114.44 C0.35 114.09 0 114.79 0 115.15 L0 123.65 A1.12682 1.13386
								 -180 0 0 1.06 124.72 L12.68 124.72 A1.12682 1.13386 -180 0 0 13.73 123.65 L13.73 115.15 C13.38 114.79
								 13.73 114.09 14.44 114.09 Z" class="st2"/>
				</g>
				<g id="shape877-11">
					<title>Sheet.877</title>
					<path d="M56.34 76.88 A1.12682 1.13386 -180 0 0 55.28 75.82 L41.2 75.82 a0.950751 0.956693 -180 0 0 -1.05639
								 1.06299 L40.14 87.86 L27.11 87.86 L27.11 99.2 L13.38 99.2 L13.38 110.9 L1.06 110.9 A1.12682 1.13386
								 -180 0 0 -0 111.96 L0 123.65 a0.950751 0.956693 -180 0 0 1.05639 1.06299 L55.64 124.72 A1.12682
								 1.13386 -180 0 0 56.69 123.65 L56.69 76.88 L56.34 76.88 ZM13.38 122.94 L1.76 122.94 L1.76 113.02
								 L13.03 113.02 L13.38 122.94 ZM27.11 122.94 L15.14 122.94 L15.14 113.02 L27.11 113.02 L27.11 122.94
								 ZM27.11 110.9 L15.14 110.9 L15.14 100.98 L27.11 100.98 L27.11 110.9 ZM28.87 89.64 L40.49 89.64 L40.49
								 99.2 L28.87 99.2 L28.87 89.64 ZM28.87 101.33 L40.49 101.33 L40.49 110.9 L28.87 110.9 L28.87 101.33
								 ZM28.87 122.94 L28.87 113.02 L40.49 113.02 L40.49 122.94 L28.87 122.94 ZM42.26 101.33 L54.58 101.33
								 L54.58 110.9 L42.26 110.9 L42.26 101.33 ZM54.58 99.2 L42.26 99.2 L42.26 89.64 L54.58 89.64 L54.58
								 99.2 ZM42.26 122.94 L42.26 113.02 L54.58 113.02 L54.58 122.94 L42.26 122.94 Z" class="st3"/>
				</g>
			</g>
		</g>
	</g>
</svg>
